X: 111
T: Morpeth Lasses
M:4/4s
L:1/8
Q:160
S:Playford
O:Manuscript
A:English
K:C
E/2|A B c B|E A A2| B>A G> d| B G G B|A>B c>b|G A A e|d B G B| c A A2:|
|: a g e a |g e a2|g>e d g| B>G d>B| a g e a |g e a2|g>e g>B| A2 A2:|

